humanity-icon-theme/Humanity/apps/24/internet-feed-reader.svg

<?xml version="1.0" encoding="UTF-8" standalone="no"?>
<!-- Created with Inkscape (http://www.inkscape.org/) -->
<svg
   xmlns:svg="http://www.w3.org/2000/svg"
   xmlns="http://www.w3.org/2000/svg"
   xmlns:xlink="http://www.w3.org/1999/xlink"
   version="1.0"
   width="24"
   height="24"
   id="svg2565">
  <defs
     id="defs2567">
    <radialGradient
       cx="4.9929786"
       cy="43.5"
       r="2.5"
       fx="4.9929786"
       fy="43.5"
       id="radialGradient2529"
       xlink:href="#linearGradient3688"
       gradientUnits="userSpaceOnUse"
       gradientTransform="matrix(2.4045408,0,0,0.8,27.985756,10.199998)" />
    <radialGradient
       cx="4.9929786"
       cy="43.5"
       r="2.5"
       fx="4.9929786"
       fy="43.5"
       id="radialGradient2527"
       xlink:href="#linearGradient3688"
       gradientUnits="userSpaceOnUse"
       gradientTransform="matrix(2.4045408,0,0,0.8,-52.014245,-79.800002)" />
    <radialGradient
       cx="4.9929786"
       cy="43.5"
       r="2.5"
       fx="4.9929786"
       fy="43.5"
       id="radialGradient2525"
       xlink:href="#linearGradient3688"
       gradientUnits="userSpaceOnUse"
       gradientTransform="matrix(2.4045408,0,0,0.8,27.985756,10.199998)" />
    <radialGradient
       cx="4.9929786"
       cy="43.5"
       r="2.5"
       fx="4.9929786"
       fy="43.5"
       id="radialGradient2523"
       xlink:href="#linearGradient3688"
       gradientUnits="userSpaceOnUse"
       gradientTransform="matrix(2.4045408,0,0,0.8,-52.014245,-79.800002)" />
    <linearGradient
       x1="24"
       y1="44"
       x2="24"
       y2="3.8990016"
       id="linearGradient2515"
       xlink:href="#linearGradient2490-113-765"
       gradientUnits="userSpaceOnUse"
       gradientTransform="matrix(0.4756098,0,0,0.4756098,0.5853658,1.5699133)" />
    <radialGradient
       cx="12.011247"
       cy="10.290615"
       r="19.99999"
       fx="12.011247"
       fy="10.290615"
       id="radialGradient2513"
       xlink:href="#linearGradient3839"
       gradientUnits="userSpaceOnUse"
       gradientTransform="matrix(2.8662791e-8,0.9798623,-1.4134591,0,24.423552,-3.8806367)" />
    <linearGradient
       id="linearGradient2490-113-765">
      <stop
         id="stop3686"
         style="stop-color:#861318;stop-opacity:1"
         offset="0" />
      <stop
         id="stop3688"
         style="stop-color:#f67e2a;stop-opacity:1"
         offset="1" />
    </linearGradient>
    <linearGradient
       x1="24"
       y1="44"
       x2="24"
       y2="3.8990016"
       id="linearGradient2563"
       xlink:href="#linearGradient2490-113-765"
       gradientUnits="userSpaceOnUse"
       gradientTransform="matrix(0.5198171,0,0,0.5226269,0.2787174,-0.4568602)" />
    <linearGradient
       id="linearGradient3839">
      <stop
         id="stop3841"
         style="stop-color:#ffed8c;stop-opacity:1"
         offset="0" />
      <stop
         id="stop3843"
         style="stop-color:#fb9858;stop-opacity:1"
         offset="0.26238" />
      <stop
         id="stop3845"
         style="stop-color:#dc572a;stop-opacity:1"
         offset="0.66093999" />
      <stop
         id="stop3847"
         style="stop-color:#9f3110;stop-opacity:1"
         offset="1" />
    </linearGradient>
    <radialGradient
       cx="12.011247"
       cy="10.290615"
       r="19.99999"
       fx="12.011247"
       fy="10.290615"
       id="radialGradient2561"
       xlink:href="#linearGradient3839"
       gradientUnits="userSpaceOnUse"
       gradientTransform="matrix(3.132696e-8,1.0767279,-1.5448383,0,26.332632,-6.4462317)" />
    <linearGradient
       x1="30.149998"
       y1="5.0700607"
       x2="30.149998"
       y2="44.020058"
       id="linearGradient2537"
       xlink:href="#linearGradient3308-4-6"
       gradientUnits="userSpaceOnUse"
       gradientTransform="matrix(0.4756098,0,0,0.4756098,0.5853658,1.5699133)" />
    <linearGradient
       x1="15.799999"
       y1="20.445061"
       x2="15.799999"
       y2="44.10902"
       id="linearGradient2541"
       xlink:href="#linearGradient3308-4-6"
       gradientUnits="userSpaceOnUse"
       gradientTransform="matrix(0.4756098,0,0,0.4756098,0.5853658,1.5699133)" />
    <linearGradient
       id="linearGradient3308-4-6">
      <stop
         id="stop3310-1-4"
         style="stop-color:#ffffff;stop-opacity:1"
         offset="0" />
      <stop
         id="stop3312-5-3"
         style="stop-color:#ffffff;stop-opacity:0"
         offset="1" />
    </linearGradient>
    <linearGradient
       x1="9.6499996"
       y1="36.845058"
       x2="9.6499996"
       y2="42.99506"
       id="linearGradient2504"
       xlink:href="#linearGradient3308-4-6"
       gradientUnits="userSpaceOnUse"
       gradientTransform="matrix(0.3450655,0,0,0.3490537,1.6994432,6.5048247)" />
    <linearGradient
       id="linearGradient8265-821-176-38-919-66-249-7-7">
      <stop
         id="stop2687-1-9"
         style="stop-color:#ffffff;stop-opacity:1"
         offset="0" />
      <stop
         id="stop2689-5-4"
         style="stop-color:#ffffff;stop-opacity:0"
         offset="1" />
    </linearGradient>
    <linearGradient
       x1="16.626165"
       y1="15.298182"
       x2="20.054544"
       y2="24.627615"
       id="linearGradient2533"
       xlink:href="#linearGradient8265-821-176-38-919-66-249-7-7"
       gradientUnits="userSpaceOnUse"
       gradientTransform="matrix(0.4669388,0,0,0.4964128,2.445664,3.5815601)" />
    <linearGradient
       id="linearGradient3688">
      <stop
         id="stop3690"
         style="stop-color:#000000;stop-opacity:1"
         offset="0" />
      <stop
         id="stop3692"
         style="stop-color:#000000;stop-opacity:0"
         offset="1" />
    </linearGradient>
    <radialGradient
       cx="-8.3116722"
       cy="44.750004"
       r="2.5"
       fx="-8.3116722"
       fy="44.750004"
       id="radialGradient2498"
       xlink:href="#linearGradient3688"
       gradientUnits="userSpaceOnUse"
       gradientTransform="matrix(0.8824773,0,0,0.3914714,11.750122,5.5030078)" />
  </defs>
  <g
     id="layer1">
    <g
       transform="matrix(0.4893393,0,0,0.4893393,-7.5735537,1.0010872)"
       id="g3619">
      <rect
         width="6"
         height="4"
         x="-40"
         y="-47"
         transform="scale(-1,-1)"
         id="rect3621"
         style="opacity:0.3;fill:url(#radialGradient2527);fill-opacity:1;stroke:none" />
      <rect
         width="6"
         height="4"
         x="40"
         y="43"
         id="rect3623"
         style="opacity:0.3;fill:url(#radialGradient2529);fill-opacity:1;stroke:none" />
    </g>
    <g
       transform="matrix(0.4893393,0,0,0.4893393,0.2558751,1.0010872)"
       id="g3615">
      <rect
         width="6"
         height="4"
         x="-40"
         y="-47"
         transform="scale(-1,-1)"
         id="rect3611"
         style="opacity:0.3;fill:url(#radialGradient2523);fill-opacity:1;stroke:none" />
      <rect
         width="6"
         height="4"
         x="40"
         y="43"
         id="rect2801"
         style="opacity:0.3;fill:url(#radialGradient2525);fill-opacity:1;stroke:none" />
    </g>
    <path
       d="M 2.4878049,3.4878389 L 2.4878049,6.8334393 C 11.062546,6.9932228 17.989189,13.929228 18.146798,22.512229 L 21.512195,22.512229 C 21.353091,12.071949 12.918292,3.6467553 2.4878049,3.4878389 z"
       id="path2559"
       style="font-size:13.58991337px;font-style:normal;font-variant:normal;font-weight:bold;font-stretch:normal;text-align:start;line-height:125%;writing-mode:lr-tb;text-anchor:start;fill:url(#radialGradient2513);fill-opacity:1;fill-rule:nonzero;stroke:url(#linearGradient2515);stroke-width:0.97560978;stroke-linecap:round;stroke-linejoin:round;marker:none;marker-start:none;marker-mid:none;marker-end:none;stroke-miterlimit:4;stroke-dasharray:none;stroke-dashoffset:0;stroke-opacity:1;visibility:visible;display:inline;overflow:visible;enable-background:accumulate;font-family:Bitstream Vera Serif" />
    <path
       d="M 2.4878049,11.188659 L 2.4878049,14.197719 C 7.0137742,14.355204 10.644652,17.98235 10.802314,22.512229 L 13.811376,22.512229 C 13.652442,16.312087 8.6822279,11.347403 2.4878049,11.188659 z"
       id="path2557"
       style="font-size:13.58991337px;font-style:normal;font-variant:normal;font-weight:bold;font-stretch:normal;text-align:start;line-height:125%;writing-mode:lr-tb;text-anchor:start;fill:url(#radialGradient2513);fill-opacity:1;fill-rule:nonzero;stroke:url(#linearGradient2515);stroke-width:0.97560978;stroke-linecap:round;stroke-linejoin:round;marker:none;marker-start:none;marker-mid:none;marker-end:none;stroke-miterlimit:4;stroke-dasharray:none;stroke-dashoffset:0;stroke-opacity:1;visibility:visible;display:inline;overflow:visible;enable-background:accumulate;font-family:Bitstream Vera Serif" />
    <path
       d="M 4.5216366,18.48784 C 3.9415482,18.487856 3.4953981,18.692625 3.0936268,19.096938 C 2.6913129,19.494603 2.487805,19.927151 2.4878048,20.510912 C 2.4878048,21.08555 2.6927295,21.528651 3.0936268,21.924886 C 3.493322,22.319957 3.9371028,22.512244 4.5216366,22.512231 C 5.0880423,22.512243 5.5127713,22.321009 5.9063733,21.924886 C 6.3094177,21.519287 6.5121885,21.076368 6.512195,20.510912 C 6.5121885,19.927146 6.3086866,19.494602 5.9063733,19.096938 C 5.5107014,18.691523 5.0834839,18.487856 4.5216366,18.48784 z"
       id="path8636"
       style="font-size:13.58991337px;font-style:normal;font-variant:normal;font-weight:bold;font-stretch:normal;text-align:start;line-height:125%;writing-mode:lr-tb;text-anchor:start;fill:url(#radialGradient2561);fill-opacity:1;fill-rule:nonzero;stroke:url(#linearGradient2563);stroke-width:0.97560984;stroke-linecap:round;stroke-linejoin:round;marker:none;marker-start:none;marker-mid:none;marker-end:none;stroke-miterlimit:4;stroke-dasharray:none;stroke-dashoffset:0;stroke-opacity:1;visibility:visible;display:inline;overflow:visible;enable-background:accumulate;font-family:Bitstream Vera Serif" />
    <path
       d="M 3.46875,4.59375 C 3.46875,5.0413232 3.46875,5.4894078 3.46875,5.9375 C 9.0199226,6.3190485 14.215637,9.6279712 16.90625,14.5 C 18.11843,16.64791 18.815486,19.071972 19,21.53125 C 19.458667,21.53125 19.917079,21.53125 20.375,21.53125 C 20.033251,16.309772 17.393147,11.235612 13.1875,8.125 C 10.399999,6.0275553 6.9548435,4.8324663 3.46875,4.59375 z"
       id="path2535"
       style="font-size:13.58991337px;font-style:normal;font-variant:normal;font-weight:bold;font-stretch:normal;text-align:start;line-height:125%;writing-mode:lr-tb;text-anchor:start;opacity:0.4;fill:none;fill-opacity:1;fill-rule:nonzero;stroke:url(#linearGradient2537);stroke-width:0.97560978;stroke-linecap:round;stroke-linejoin:round;marker:none;marker-start:none;marker-mid:none;marker-end:none;stroke-miterlimit:4;stroke-dasharray:none;stroke-dashoffset:0;stroke-opacity:1;visibility:visible;display:inline;overflow:visible;enable-background:accumulate;font-family:Bitstream Vera Serif" />
    <path
       d="M 3.4375,12.28125 C 3.4375,12.655975 3.4375,13.031155 3.4375,13.40625 C 7.2091061,13.8731 10.50993,16.761568 11.40625,20.46875 L 11.4375,20.46875 C 11.452041,20.506418 11.425678,20.525226 11.4375,20.5625 C 11.570279,20.98114 11.554295,21.408621 11.59375,21.59375 C 11.615234,21.694556 11.644544,21.660198 11.59375,21.625 C 11.542956,21.589802 11.531962,21.638408 11.6875,21.59375 C 11.727601,21.577851 11.769635,21.567343 11.8125,21.5625 C 12.105104,21.5625 12.396251,21.5625 12.6875,21.5625 C 12.27649,17.891213 9.8466054,14.464644 6.4375,13.03125 C 5.4898026,12.620631 4.4706595,12.399194 3.4375,12.28125 z"
       transform="translate(0,-4.1884877e-2)"
       id="path2539"
       style="font-size:13.58991337px;font-style:normal;font-variant:normal;font-weight:bold;font-stretch:normal;text-align:start;line-height:125%;writing-mode:lr-tb;text-anchor:start;opacity:0.4;fill:none;fill-opacity:1;fill-rule:nonzero;stroke:url(#linearGradient2541);stroke-width:0.97560978;stroke-linecap:round;stroke-linejoin:round;marker:none;marker-start:none;marker-mid:none;marker-end:none;stroke-miterlimit:4;stroke-dasharray:none;stroke-dashoffset:0;stroke-opacity:1;visibility:visible;display:inline;overflow:visible;enable-background:accumulate;font-family:Bitstream Vera Serif" />
    <path
       d="M 4.5208925,19.488715 C 3.777728,19.45463 3.1786772,20.423756 3.6620304,21.050981 C 4.0262458,21.650334 4.9858224,21.678775 5.3448932,21.058728 C 5.7990353,20.424623 5.2632777,19.491939 4.5208925,19.488715 z"
       id="path3219"
       style="font-size:13.58991337px;font-style:normal;font-variant:normal;font-weight:bold;font-stretch:normal;text-align:start;line-height:125%;writing-mode:lr-tb;text-anchor:start;opacity:0.4;fill:none;fill-opacity:1;fill-rule:nonzero;stroke:url(#linearGradient2504);stroke-width:0.9756099;stroke-linecap:round;stroke-linejoin:round;marker:none;marker-start:none;marker-mid:none;marker-end:none;stroke-miterlimit:4;stroke-dasharray:none;stroke-dashoffset:0;stroke-opacity:1;visibility:visible;display:inline;overflow:visible;enable-background:accumulate;font-family:Bitstream Vera Serif" />
    <path
       d="M 2.46875,3 C 2.1994997,3.0117426 1.9947967,3.2511692 2,3.5 L 2,6.84375 C 1.9977355,6.9560533 2.0444068,7.1069065 2.125,7.1875 C 2.2450506,7.3075491 2.3861057,7.3147965 2.5,7.3125 C 7.5812835,7.4071857 12.057199,9.9768738 14.8125,13.84375 C 14.898767,13.960578 15.077298,14.054445 15.25,14.03125 L 15.28125,14.03125 L 18.875,13.40625 C 18.885406,13.406911 18.895844,13.406911 18.90625,13.40625 C 19.017549,13.379673 19.16595,13.318317 19.25,13.125 C 19.328618,12.944176 19.278186,12.792244 19.21875,12.6875 C 15.812156,6.9640834 9.6107842,3.1083382 2.5,3 C 2.4731712,2.9991439 2.495559,2.9991451 2.46875,3 z M 2.46875,10.6875 C 2.1995011,10.699243 1.9947967,10.938669 2,11.1875 L 2,14.21875 C 1.997407,14.342752 2.0368779,14.476782 2.125,14.5625 C 2.2131221,14.648218 2.3538513,14.682489 2.46875,14.6875 C 3.6683031,14.72924 4.767835,15.026374 5.78125,15.53125 C 5.7916562,15.531911 5.8020938,15.531911 5.8125,15.53125 C 5.8666339,15.555798 5.9638855,15.611041 6.09375,15.59375 C 6.1075654,15.591911 6.1101872,15.597162 6.125,15.59375 L 10.28125,14.875 C 10.291656,14.875661 10.302094,14.875661 10.3125,14.875 C 10.521775,14.827536 10.63417,14.673318 10.6875,14.5 C 10.740827,14.326679 10.659314,14.166263 10.5625,14.0625 C 10.55304,14.051168 10.542582,14.04071 10.53125,14.03125 C 8.4316267,12.034816 5.6162874,10.767362 2.5,10.6875 C 2.4733083,10.686654 2.4954417,10.686654 2.46875,10.6875 z"
       id="path2531"
       style="opacity:0.2;fill:url(#linearGradient2533);fill-opacity:1;fill-rule:evenodd;stroke:none;stroke-width:1;stroke-linecap:butt;stroke-linejoin:miter;marker:none;marker-start:none;marker-mid:none;marker-end:none;stroke-miterlimit:4;stroke-dasharray:none;stroke-dashoffset:0;stroke-opacity:1;visibility:visible;display:inline;overflow:visible;enable-background:accumulate" />
    <path
       d="M 6.6172863,23.021356 C 6.6172863,23.561865 5.631405,24.000034 4.4152593,24.000034 C 3.1991134,24.000034 2.2132323,23.561865 2.2132323,23.021356 C 2.2132323,22.480847 3.1991134,22.042677 4.4152593,22.042677 C 5.631405,22.042677 6.6172863,22.480847 6.6172863,23.021356 z"
       id="path3629"
       style="opacity:0.3;fill:url(#radialGradient2498);fill-opacity:1;fill-rule:nonzero;stroke:none;stroke-width:1;stroke-linecap:butt;stroke-linejoin:miter;marker:none;marker-start:none;marker-mid:none;marker-end:none;stroke-miterlimit:4;stroke-dasharray:none;stroke-dashoffset:0;stroke-opacity:1;visibility:visible;display:inline;overflow:visible;enable-background:accumulate" />
  </g>
</svg>

<?xml version="1.0" encoding="UTF-8" standalone="no"?>
<!-- Created with Inkscape (http://www.inkscape.org/) -->
<svg id="svg2565" xmlns="http://www.w3.org/2000/svg" height="24" width="24" version="1.0" xmlns:xlink="http://www.w3.org/1999/xlink">
 <defs id="defs2567">
  <radialGradient id="radialGradient2529" xlink:href="#linearGradient3688" gradientUnits="userSpaceOnUse" cy="43.5" cx="4.993" gradientTransform="matrix(2.4045 0 0 .8 27.986 10.2)" r="2.5"/>
  <radialGradient id="radialGradient2527" xlink:href="#linearGradient3688" gradientUnits="userSpaceOnUse" cy="43.5" cx="4.993" gradientTransform="matrix(2.4045 0 0 .8 -52.014 -79.8)" r="2.5"/>
  <linearGradient id="linearGradient2515" y2="3.899" xlink:href="#linearGradient2490-113-765" gradientUnits="userSpaceOnUse" x2="24" gradientTransform="matrix(.47561 0 0 .47561 .58537 1.5699)" y1="44" x1="24"/>
  <radialGradient id="radialGradient2513" xlink:href="#linearGradient3839" gradientUnits="userSpaceOnUse" cy="10.291" cx="12.011" gradientTransform="matrix(2.8663e-8 .97986 -1.4135 0 24.424 -3.8806)" r="20"/>
  <linearGradient id="linearGradient2490-113-765">
   <stop id="stop3686" style="stop-color:#861318" offset="0"/>
   <stop id="stop3688" style="stop-color:#f67e2a" offset="1"/>
  </linearGradient>
  <linearGradient id="linearGradient2563" y2="3.899" xlink:href="#linearGradient2490-113-765" gradientUnits="userSpaceOnUse" x2="24" gradientTransform="matrix(.51982 0 0 .52263 .27872 -.45686)" y1="44" x1="24"/>
  <linearGradient id="linearGradient3839">
   <stop id="stop3841" style="stop-color:#ffed8c" offset="0"/>
   <stop id="stop3843" style="stop-color:#fb9858" offset=".26238"/>
   <stop id="stop3845" style="stop-color:#dc572a" offset=".66094"/>
   <stop id="stop3847" style="stop-color:#9f3110" offset="1"/>
  </linearGradient>
  <radialGradient id="radialGradient2561" xlink:href="#linearGradient3839" gradientUnits="userSpaceOnUse" cy="10.291" cx="12.011" gradientTransform="matrix(3.1327e-8 1.0767 -1.5448 0 26.333 -6.4462)" r="20"/>
  <linearGradient id="linearGradient2537" y2="44.02" xlink:href="#linearGradient3308-4-6" gradientUnits="userSpaceOnUse" x2="30.15" gradientTransform="matrix(.47561 0 0 .47561 .58537 1.5699)" y1="5.0701" x1="30.15"/>
  <linearGradient id="linearGradient2541" y2="44.109" xlink:href="#linearGradient3308-4-6" gradientUnits="userSpaceOnUse" x2="15.8" gradientTransform="matrix(.47561 0 0 .47561 .58537 1.5699)" y1="20.445" x1="15.8"/>
  <linearGradient id="linearGradient3308-4-6">
   <stop id="stop3310-1-4" style="stop-color:#fff" offset="0"/>
   <stop id="stop3312-5-3" style="stop-color:#fff;stop-opacity:0" offset="1"/>
  </linearGradient>
  <linearGradient id="linearGradient2504" y2="42.995" xlink:href="#linearGradient3308-4-6" gradientUnits="userSpaceOnUse" x2="9.65" gradientTransform="matrix(.34507 0 0 .34905 1.6994 6.5048)" y1="36.845" x1="9.65"/>
  <linearGradient id="linearGradient2533" y2="24.628" gradientUnits="userSpaceOnUse" x2="20.055" gradientTransform="matrix(.46694 0 0 .49641 2.4457 3.5816)" y1="15.298" x1="16.626">
   <stop id="stop2687-1-9" style="stop-color:#fff" offset="0"/>
   <stop id="stop2689-5-4" style="stop-color:#fff;stop-opacity:0" offset="1"/>
  </linearGradient>
  <linearGradient id="linearGradient3688">
   <stop id="stop3690" offset="0"/>
   <stop id="stop3692" style="stop-opacity:0" offset="1"/>
  </linearGradient>
  <radialGradient id="radialGradient2498" xlink:href="#linearGradient3688" gradientUnits="userSpaceOnUse" cy="44.75" cx="-8.3117" gradientTransform="matrix(.88248 0 0 .39147 11.75 5.503)" r="2.5"/>
 </defs>
 <g id="layer1">
  <g id="g3619" transform="matrix(.48934 0 0 .48934 -7.5736 1.0011)">
   <rect id="rect3621" style="opacity:.3;fill:url(#radialGradient2527)" transform="scale(-1)" height="4" width="6" y="-47" x="-40"/>
   <rect id="rect3623" style="opacity:.3;fill:url(#radialGradient2529)" height="4" width="6" y="43" x="40"/>
  </g>
  <g id="g3615" transform="matrix(.48934 0 0 .48934 .25588 1.0011)">
   <rect id="rect3611" style="opacity:.3;fill:url(#radialGradient2527)" transform="scale(-1)" height="4" width="6" y="-47" x="-40"/>
   <rect id="rect2801" style="opacity:.3;fill:url(#radialGradient2529)" height="4" width="6" y="43" x="40"/>
  </g>
  <path id="path2559" style="stroke-linejoin:round;stroke:url(#linearGradient2515);stroke-linecap:round;stroke-width:.97561;fill:url(#radialGradient2513)" d="m2.4878 3.4878v3.3456c8.5752 0.1598 15.501 7.0956 15.659 15.679h3.365c-0.159-10.44-8.594-18.865-19.024-19.024z"/>
  <path id="path2557" style="stroke-linejoin:round;stroke:url(#linearGradient2515);stroke-linecap:round;stroke-width:.97561;fill:url(#radialGradient2513)" d="m2.4878 11.189v3.009c4.526 0.157 8.1572 3.784 8.3142 8.314h3.009c-0.159-6.2-5.1288-11.165-11.323-11.323z"/>
  <path id="path8636" style="stroke-linejoin:round;stroke:url(#linearGradient2563);stroke-linecap:round;stroke-width:.97561;fill:url(#radialGradient2561)" d="m4.5216 18.488c-0.5801 0-1.0262 0.205-1.428 0.609-0.4023 0.398-0.6058 0.83-0.6058 1.414 0 0.575 0.2049 1.018 0.6058 1.414 0.3997 0.395 0.8435 0.587 1.428 0.587 0.5664 0 0.9912-0.191 1.3848-0.587 0.403-0.406 0.6058-0.849 0.6058-1.414 0-0.584-0.2035-1.016-0.6058-1.414-0.3957-0.405-0.8229-0.609-1.3848-0.609z"/>
  <path id="path2535" style="stroke-linejoin:round;opacity:.4;stroke:url(#linearGradient2537);stroke-linecap:round;stroke-width:.97561;fill:none" d="m3.4688 4.5938v1.3437c5.5511 0.3815 10.747 3.6905 13.437 8.5625 1.212 2.148 1.909 4.572 2.094 7.031h1.375c-0.342-5.221-2.982-10.295-7.187-13.406-2.788-2.0974-6.2332-3.2925-9.7192-3.5312z"/>
  <path id="path2539" style="stroke-linejoin:round;opacity:.4;stroke:url(#linearGradient2541);stroke-linecap:round;stroke-width:.97561;fill:none" d="m3.4375 12.281v1.125c3.7716 0.467 7.0725 3.356 7.9685 7.063h0.032c0.014 0.037-0.012 0.056 0 0.093 0.132 0.419 0.116 0.847 0.156 1.032 0.021 0.101 0.051 0.066 0 0.031s-0.062 0.013 0.094-0.031c0.04-0.016 0.082-0.027 0.124-0.032h0.876c-0.412-3.671-2.8414-7.097-6.2505-8.531-0.9477-0.41-1.9668-0.632-3-0.75z" transform="translate(0 -.041885)"/>
  <path id="path3219" style="stroke-linejoin:round;opacity:.4;stroke:url(#linearGradient2504);stroke-linecap:round;stroke-width:.97561;fill:none" d="m4.5209 19.489c-0.7432-0.034-1.3422 0.935-0.8589 1.562 0.3642 0.599 1.3238 0.628 1.6829 0.008 0.4541-0.634-0.0816-1.567-0.824-1.57z"/>
  <path id="path2531" style="opacity:.2;fill-rule:evenodd;fill:url(#linearGradient2533)" d="m2.4688 3c-0.2693 0.0117-0.474 0.2512-0.4688 0.5v3.3438c-0.0023 0.1123 0.0444 0.2631 0.125 0.3437 0.1201 0.12 0.2611 0.1273 0.375 0.125 5.0813 0.0947 9.557 2.6644 12.312 6.5315 0.087 0.117 0.265 0.21 0.438 0.187h0.031l3.594-0.625c0.01 0.001 0.021 0.001 0.031 0 0.112-0.026 0.26-0.088 0.344-0.281 0.079-0.181 0.028-0.333-0.031-0.437-3.407-5.7239-9.6082-9.5797-16.719-9.688-0.0268-0.0009-0.0044-0.0009-0.0312 0zm0 7.688c-0.2693 0.011-0.474 0.251-0.4688 0.5v3.031c-0.0026 0.124 0.0369 0.258 0.125 0.343 0.0881 0.086 0.2289 0.12 0.3438 0.126 1.1995 0.041 2.299 0.338 3.3124 0.843 0.0105 0.001 0.0209 0.001 0.0313 0 0.0541 0.025 0.1514 0.08 0.2813 0.063 0.0138-0.002 0.0164 0.003 0.0312 0l4.156-0.719c0.011 0.001 0.021 0.001 0.031 0 0.21-0.047 0.322-0.202 0.376-0.375 0.053-0.173-0.029-0.334-0.126-0.438-0.009-0.011-0.019-0.021-0.031-0.031-2.0994-1.996-4.9147-3.264-8.031-3.343-0.0267-0.001-0.0046-0.001-0.0312 0z"/>
  <path id="path3629" style="opacity:.3;fill:url(#radialGradient2498)" d="m6.6173 23.021c0 0.541-0.9859 0.979-2.202 0.979-1.2162 0-2.2021-0.438-2.2021-0.979 0-0.54 0.9859-0.978 2.2021-0.978 1.2161 0 2.202 0.438 2.202 0.978z"/>
 </g>
</svg>
